X:549
T:My Love Will Ne'er Forsake Me
M:3/4
L:1/8
B:O'Neill's 549
N:"With feeling" "collected by J. O'Neill"
Z:Transcribed by Dave Wooldridge
K:D
(AB/2c/2) \
|d2 de fd|ec  A3 d|dFGBAG|EF4 AF|
DEFGAB|A2 d2 z d|cdecAc|d4||
(cd) \
|ec A2 ag|f2 d3 A|dAGFED|A4 AF|
DEFGAB|A2 d2 z d|cdecAc|d4||
